src/telerik-icons/solid/set-column-position.svg

<?xml version="1.0" encoding="utf-8"?>
<svg xmlns="http://www.w3.org/2000/svg" width="512" height="512" viewBox="0 0 512 512">
  <path d="M448 32H64c-17.7 0-32 14.3-32 32v384c0 17.7 14.3 32 32 32h384c17.7 0 32-14.3 32-32V64c0-17.7-14.3-32-32-32zM192 416H96V96h96v320zm224 0H224v-32h192v32zm0-64H224v-64h192v64zm0-96H224v-64h192v64zm0-96H224V96h192v64z"/>
</svg>

<?xml version="1.0" encoding="utf-8"?>
<!-- Generator: Adobe Illustrator 24.2.3, SVG Export Plug-In . SVG Version: 6.00 Build 0)  -->
<svg xmlns="http://www.w3.org/2000/svg"
	 width="512px" height="512px" viewBox="0 0 512 512" enable-background="new 0 0 512 512">
<path d="M448,32H64c-17.7,0-32,14.3-32,32v384c0,17.7,14.3,32,32,32h384c17.7,0,32-14.3,32-32V64C480,46.3,465.7,32,448,32z
	 M192,416H96V96h96V416z M416,416H224v-32h192V416z M416,352H224v-64h192V352z M416,256H224v-64h192V256z M416,160H224V96h192V160z"
	/>
</svg>
